Frontend/dist/icon3.svg

<svg width="107" height="128" viewBox="0 0 107 128" fill="none" xmlns="http://www.w3.org/2000/svg">
<path d="M53.5432 0C0.98291 0.4935 -19.8171 67.4015 23.0532 97.6708C22.4414 98.1265 22.0434 98.8533 22.0434 99.6748V125.5C22.0434 126.88 23.1627 128 24.5434 128H37.1909C38.5717 128 39.6909 126.88 39.6909 125.5V124.059H43.0522C43.8322 124.059 44.5822 124.312 45.1534 124.763C46.8932 126.152 49.8227 127.808 53.8982 127.808H65.1087C70.1474 127.808 74.2807 124.039 74.7494 119.031L76.5317 105.893C76.5369 105.853 76.5417 105.813 76.5452 105.773C76.6517 104.542 76.5284 103.333 76.1877 102.185C127.704 77.2542 110.844 0.89375 53.5432 0ZM27.0434 123V102.174H34.6904L34.6909 123H27.0434ZM71.5682 105.287L69.7874 118.413C69.7822 118.453 69.7777 118.493 69.7742 118.533C69.5614 120.97 67.5559 122.808 65.1087 122.808H53.8982C51.2697 122.808 49.3882 121.747 48.2627 120.848C45.6287 118.723 42.8397 119.066 39.6907 119.06V101.862C41.5817 101.334 42.9759 99.929 43.9924 98.307C44.5639 97.4047 53.3514 83.4737 53.3514 83.4737L55.1037 84.3763C57.1617 85.4663 57.9087 87.9135 56.8567 89.975L54.4182 94.329C52.9882 96.9163 54.9074 100.248 57.9067 100.248H66.8992C69.5869 100.248 71.7704 102.607 71.5682 105.287ZM93.6749 81.0062C88.6052 88.414 81.6732 94.2245 73.5507 97.896C71.7672 96.207 69.3549 95.248 66.8987 95.248H59.6354L59.9532 94.6803C90.5507 90.4325 105.824 52.6803 86.5984 28.3722C81.2022 21.3117 73.5512 16.0778 65.0544 13.6348C63.7264 13.253 62.3424 14.0193 61.9609 15.3465C61.5794 16.6735 62.3457 18.0585 63.6727 18.44C71.1457 20.589 77.8764 25.1945 82.6259 31.4085C98.7477 51.729 87.3122 83.4553 62.3052 89.1198C62.7582 85.4233 60.7889 81.7217 57.4912 79.9822L53.6084 77.976C52.4049 77.3537 50.9399 77.838 50.2667 78.9905L44.0029 88.9167C8.45391 78.7807 7.95616 29.3003 43.3054 18.472C44.6309 18.0863 45.3929 16.699 45.0072 15.373C44.6214 14.0473 43.2339 13.2847 41.9082 13.671C2.45266 25.7055 2.03741 80.6278 41.2269 93.3158L39.4862 96.0742C38.8257 96.9347 38.3094 97.159 37.1704 97.1745H32.0169C-13.6496 73.8217 2.18241 5.759 53.5437 5C92.0159 4.4975 115.8 49.5837 93.6749 81.0062Z" fill="#F79009"/>
<path d="M53.5424 26.6489C52.7052 26.6489 51.9237 27.0679 51.4604 27.7652L43.7469 39.3707L30.3257 43.1204C28.6367 43.5919 27.9467 45.7027 29.0389 47.0807L37.6927 58.0029L37.1117 71.9257C37.0387 73.6774 38.8317 74.9872 40.4804 74.3732L53.5424 69.5182L66.6042 74.3732C68.2517 74.9867 70.0462 73.6782 69.9732 71.9257L69.3922 58.0029L78.0459 47.0807C79.1379 45.7024 78.4479 43.5919 76.7592 43.1204L63.3382 39.3707L55.6247 27.7652C55.1609 27.0679 54.3797 26.6489 53.5424 26.6489ZM61.0979 43.9359L71.7909 46.9237L64.8959 55.6262C64.5237 56.0959 64.3327 56.6839 64.3577 57.2829L64.8207 68.3762L54.4137 64.5079C53.8514 64.2989 53.2332 64.2989 52.6717 64.5079L42.2644 68.3762L42.7274 57.2829C42.7524 56.6839 42.5614 56.0959 42.1892 55.6262L35.2942 46.9237L45.9874 43.9359C46.5649 43.7747 47.0649 43.4112 47.3967 42.9119L53.5427 33.6652L59.6887 42.9119C60.0202 43.4114 60.5204 43.7749 61.0979 43.9359Z" fill="#F79009"/>
<path d="M51.2358 15.4747C52.0828 17.5097 55.0701 17.4802 55.8711 15.423C56.7043 13.2825 54.3113 11.2125 52.3118 12.3447C51.2296 12.9575 50.7561 14.3245 51.2358 15.4747Z" fill="#F79009"/>
</svg>

<svg width="107" height="128" fill="none" xmlns="http://www.w3.org/2000/svg"><path d="M53.543 0c-52.56.493-73.36 67.401-30.49 97.67a2.494 2.494 0 0 0-1.01 2.005V125.5a2.5 2.5 0 0 0 2.5 2.5h12.648a2.5 2.5 0 0 0 2.5-2.5v-1.441h3.361c.78 0 1.53.253 2.101.704a13.872 13.872 0 0 0 8.745 3.045h11.21a9.628 9.628 0 0 0 9.641-8.777l1.783-13.138a9.647 9.647 0 0 0-.344-3.708C127.704 77.255 110.844.894 53.543 0Zm-26.5 123v-20.826h7.647V123h-7.647Zm44.525-17.713-1.78 13.126c-.006.04-.01.08-.014.12a4.657 4.657 0 0 1-4.665 4.275h-11.21a8.922 8.922 0 0 1-5.636-1.96c-2.634-2.125-5.423-1.782-8.572-1.788v-17.198c1.89-.528 3.285-1.933 4.301-3.555.572-.902 9.36-14.833 9.36-14.833l1.752.902c2.058 1.09 2.805 3.537 1.753 5.599l-2.439 4.354c-1.43 2.587.49 5.919 3.489 5.919h8.992c2.688 0 4.871 2.359 4.67 5.039Zm22.107-24.28A48.595 48.595 0 0 1 73.55 97.895a9.74 9.74 0 0 0-6.652-2.648h-7.264l.318-.568c30.598-4.248 45.871-42 26.645-66.308-5.396-7.06-13.047-12.294-21.544-14.737a2.5 2.5 0 1 0-1.381 4.805c7.473 2.149 14.203 6.755 18.953 12.968 16.122 20.321 4.686 52.047-20.32 57.712.452-3.697-1.517-7.398-4.815-9.138l-3.883-2.006c-1.203-.622-2.668-.138-3.341 1.014l-6.264 9.927C8.453 78.78 7.956 29.3 43.305 18.472a2.5 2.5 0 0 0-1.397-4.801c-39.455 12.035-39.87 66.957-.681 79.645l-1.74 2.758c-.661.86-1.178 1.085-2.317 1.1h-5.153C-13.65 73.822 2.182 5.76 53.544 5c38.472-.503 62.256 44.584 40.13 76.006Z" fill="#F79009"/><path d="M53.542 26.649a2.5 2.5 0 0 0-2.082 1.116l-7.713 11.606-13.421 3.75c-1.69.47-2.38 2.582-1.287 3.96l8.654 10.922-.581 13.923c-.073 1.751 1.72 3.061 3.368 2.447l13.062-4.855 13.062 4.855c1.648.614 3.442-.695 3.37-2.447l-.582-13.923 8.654-10.922c1.092-1.379.402-3.49-1.287-3.96l-13.42-3.75-7.714-11.606a2.5 2.5 0 0 0-2.083-1.116Zm7.556 17.287 10.693 2.988-6.895 8.702a2.5 2.5 0 0 0-.538 1.657l.463 11.093-10.407-3.868a2.498 2.498 0 0 0-1.742 0l-10.408 3.868.463-11.093a2.5 2.5 0 0 0-.538-1.657l-6.895-8.702 10.693-2.988a2.499 2.499 0 0 0 1.41-1.024l6.146-9.247 6.146 9.247c.331.5.831.863 1.409 1.024ZM51.236 15.475c.847 2.035 3.834 2.005 4.635-.052.833-2.14-1.56-4.21-3.56-3.078a2.52 2.52 0 0 0-1.075 3.13Z" fill="#F79009"/></svg>
